src/shared/assets/feed/icon/Frame 2117132547.svg

<svg width="36" height="36" viewBox="0 0 36 36" fill="none" xmlns="http://www.w3.org/2000/svg">
<rect width="36" height="36" rx="12" fill="white"/>
<path d="M4.10237 24.3754C3.83399 23.5386 5.0252 21.3199 5.95711 20.4006L7.87825 23.9117C7.87825 23.9117 4.37076 25.2123 4.10237 24.3754Z" fill="#F0DA9C"/>
<path d="M5.82578 20.4006C5.82578 20.4006 3.10971 24.0442 4.3025 24.5742C5.10564 24.931 6.62098 22.9842 6.62098 22.9842" stroke="black" stroke-width="0.753012" stroke-linecap="round" stroke-linejoin="round"/>
<path d="M9.33777 12.3174C2.96482 16.5294 6.74091 23.2495 6.74091 23.2495C6.74091 23.2495 4.81945 23.2495 5.08449 24.9057C5.34953 26.5619 8.50421 26.4956 10.8891 26.4956C13.2643 26.4956 14.4771 25.9961 14.8997 25.8221L14.9048 25.82C14.9355 26.6232 18.9114 26.8654 23.8677 26.7379C29.7444 26.5868 29.8608 23.6402 29.8608 23.6402C29.8608 23.6402 30.6529 25.157 31.4507 24.6407C32.7635 23.7912 31.2364 20.0841 30.8184 18.8795C31.39 17.3881 31.2128 12.6939 25.8664 10.8114C22.0032 9.45109 13.2919 9.70411 9.33777 12.3174Z" fill="#F0DA9C"/>
<path d="M14.9048 25.82C14.9355 26.6232 18.9114 26.8654 23.8677 26.7379C29.7444 26.5868 29.8608 23.6402 29.8608 23.6402C29.8608 23.6402 30.6529 25.157 31.4507 24.6407C32.7635 23.7912 31.2364 20.0841 30.8184 18.8795C31.39 17.3881 31.2128 12.6939 25.8664 10.8114C22.0032 9.45109 13.2919 9.70411 9.33777 12.3174C2.96482 16.5294 6.74091 23.2495 6.74091 23.2495C6.74091 23.2495 4.81945 23.2495 5.08449 24.9057C5.34953 26.5619 8.50421 26.4956 10.8891 26.4956C13.274 26.4956 14.4869 25.9921 14.9048 25.82ZM14.9048 25.82C14.8478 24.3286 15.1328 23.6402 17.9822 23.6402" stroke="black" stroke-width="0.753012" stroke-linecap="round" stroke-linejoin="round"/>
<path d="M15.7318 18.9288C15.7318 18.9288 16.3351 18.9378 16.9812 18.8871C17.6273 18.8363 17.8154 18.4504 17.8154 18.4504" stroke="black" stroke-width="0.681018" stroke-linecap="round" stroke-linejoin="round"/>
<circle cx="11.8457" cy="17.2523" r="1.74309" fill="white" stroke="black" stroke-width="0.681018"/>
<ellipse cx="11.1276" cy="17.0149" rx="1.15991" ry="1.43774" fill="black"/>
<circle cx="20.702" cy="16.2106" r="1.48264" fill="white" stroke="black" stroke-width="0.681018"/>
<ellipse cx="20.1815" cy="16.0952" rx="0.866174" ry="1.18738" transform="rotate(15.0268 20.1815 16.0952)" fill="black"/>
</svg>

<svg xmlns="http://www.w3.org/2000/svg" fill="none" viewBox="0 0 36 36"><rect width="36" height="36" fill="#fff" rx="12"/><path fill="#f0da9c" d="M4.102 24.375c-.268-.836.923-3.055 1.855-3.974l1.921 3.51s-3.507 1.301-3.776.464"/><path stroke="#000" stroke-linecap="round" stroke-linejoin="round" stroke-width=".753" d="M5.826 20.4s-2.716 3.644-1.523 4.174c.803.357 2.318-1.59 2.318-1.59"/><path fill="#f0da9c" d="M9.338 12.317C2.965 16.53 6.74 23.25 6.74 23.25s-1.922 0-1.657 1.656c.266 1.656 3.42 1.59 5.805 1.59 2.375 0 3.588-.5 4.01-.674l.006-.002c.03.803 4.006 1.045 8.963.918 5.876-.151 5.993-3.098 5.993-3.098s.792 1.517 1.59 1c1.313-.849-.215-4.556-.633-5.76.572-1.492.395-6.186-4.952-8.069-3.863-1.36-12.574-1.107-16.528 1.506"/><path stroke="#000" stroke-linecap="round" stroke-linejoin="round" stroke-width=".753" d="M14.905 25.82c.03.803 4.006 1.045 8.963.918 5.876-.151 5.993-3.098 5.993-3.098s.792 1.517 1.59 1c1.313-.849-.215-4.556-.633-5.76.572-1.492.395-6.186-4.952-8.069-3.863-1.36-12.574-1.107-16.528 1.506C2.965 16.53 6.74 23.25 6.74 23.25s-1.922 0-1.657 1.656c.266 1.656 3.42 1.59 5.805 1.59s3.598-.504 4.016-.676m0 0c-.057-1.491.228-2.18 3.077-2.18"/><path stroke="#000" stroke-linecap="round" stroke-linejoin="round" stroke-width=".681" d="M15.732 18.929s.603.009 1.25-.042c.645-.05.833-.437.833-.437"/><circle cx="11.846" cy="17.252" r="1.743" fill="#fff" stroke="#000" stroke-width=".681"/><ellipse cx="11.128" cy="17.015" fill="#000" rx="1.16" ry="1.438"/><circle cx="20.702" cy="16.211" r="1.483" fill="#fff" stroke="#000" stroke-width=".681"/><ellipse cx="20.181" cy="16.095" fill="#000" rx=".866" ry="1.187" transform="rotate(15.027 20.181 16.095)"/></svg>
